X: 2
T: Bridge, Drunken Sailor, 8 bars in D
P: piffero primo b0042
O: safd 083
%R: march, reel
F: http://ancients.sudburymuster.org/mus/ssp/pdf/seamedF.pdf
Z: 2019 John Chambers <jc:trillian.mit.edu>
M: 2/4
L: 1/16
K: D
z2 \
| B2BB B2BB | B2D2 G2B2 | A2AA A2AA | A2D2 G2A2 \
| B2BB B2BB | B2c2 d2e2 | d2B2 A2F2 | E4   E2  |]


